X: 19430
T: Jackson's
R: hornpipe
M: 4/4
K: Amixolydian
|:(3efg|a2e2 c2A2|a2e2 c2A2|dcBA GABd|g2B2 B2fg|
a2e2 c2A2|a2e2 c2A2|dcBA GABd|c2A2 A2:|
|:E2|ABcd e2f2|gfed e2c2|dcBA GABd|g2B2 B2d2|
ABcd e2f2|gfed e2c2|dcBA GABd|c2A2 A2:|

